X: 645
T: Adele's Bath
R: jig
M: 6/8
K: Amajor
EEE FAc|BAF AFD|EFA cBA|cec A2F|
EEE FAc|BAF ABc|dfd cec|1 BAF A2F:|2 BAF A2c||
|:efa ecA|BAF EFA|ecf ecA|BcB Ace|
gaf ecA|BBB cAF|EFA cec|1 BAF A2c:|2 BAF A2F||

